packages/assets/static/images/icons/gps-slash.svg

<svg width="24" height="24" viewBox="0 0 24 24" xmlns="http://www.w3.org/2000/svg">
<g clip-path="url(#clip0_2077_3077)">
<path d="M23.625 12.0005C23.625 12.2989 23.5065 12.585 23.2955 12.796C23.0845 13.007 22.7984 13.1255 22.5 13.1255H20.5509C20.4847 13.6345 20.373 14.1365 20.2172 14.6255C20.1446 14.8527 20.0017 15.051 19.8091 15.1917C19.6165 15.3324 19.3842 15.4083 19.1456 15.4083C19.0295 15.408 18.9141 15.39 18.8034 15.3549C18.6626 15.3099 18.532 15.2377 18.4192 15.1422C18.3063 15.0468 18.2133 14.93 18.1456 14.7987C18.0779 14.6673 18.0367 14.5238 18.0244 14.3765C18.0121 14.2292 18.029 14.081 18.0741 13.9402C18.3781 12.9843 18.4525 11.9702 18.2912 10.9802C18.13 9.99025 17.7376 9.05221 17.1459 8.24227C16.5542 7.43232 15.7799 6.77328 14.8858 6.31862C13.9917 5.86396 13.003 5.62649 12 5.62549C11.5437 5.62541 11.0886 5.6738 10.6425 5.76986C10.4968 5.80488 10.3455 5.81042 10.1976 5.78618C10.0498 5.76193 9.9082 5.70838 9.78129 5.62867C9.65438 5.54896 9.54468 5.44469 9.45862 5.322C9.37257 5.1993 9.31189 5.06065 9.28016 4.91418C9.24843 4.76772 9.24629 4.61638 9.27385 4.46908C9.30142 4.32177 9.35814 4.18145 9.44068 4.05637C9.52322 3.93128 9.62993 3.82395 9.75453 3.74067C9.87912 3.6574 10.0191 3.59985 10.1663 3.57143C10.3997 3.5208 10.635 3.47768 10.875 3.44861V1.50049C10.875 1.20212 10.9935 0.915972 11.2045 0.704993C11.4155 0.494015 11.7016 0.375488 12 0.375488C12.2984 0.375488 12.5845 0.494015 12.7955 0.704993C13.0065 0.915972 13.125 1.20212 13.125 1.50049V3.44861C15.0066 3.69939 16.7534 4.56254 18.0957 5.90481C19.438 7.24709 20.3011 8.99386 20.5519 10.8755H22.5C22.7984 10.8755 23.0845 10.994 23.2955 11.205C23.5065 11.416 23.625 11.7021 23.625 12.0005ZM20.3325 19.4939C20.4339 19.6029 20.5127 19.7309 20.5643 19.8705C20.6159 20.0102 20.6393 20.1587 20.6331 20.3074C20.6269 20.4562 20.5912 20.6022 20.5281 20.7371C20.4651 20.8719 20.3759 20.9929 20.2657 21.093C20.1555 21.1932 20.0266 21.2704 19.8863 21.3203C19.7461 21.3703 19.5973 21.3918 19.4486 21.3838C19.3 21.3758 19.1544 21.3384 19.0203 21.2737C18.8862 21.2091 18.7663 21.1184 18.6675 21.0071L16.9191 19.0842C15.79 19.8698 14.4889 20.3726 13.125 20.5505V22.5005C13.125 22.7989 13.0065 23.085 12.7955 23.296C12.5845 23.507 12.2984 23.6255 12 23.6255C11.7016 23.6255 11.4155 23.507 11.2045 23.296C10.9935 23.085 10.875 22.7989 10.875 22.5005V20.5524C8.99337 20.3016 7.2466 19.4384 5.90433 18.0962C4.56205 16.7539 3.6989 15.0071 3.44812 13.1255H1.5C1.20163 13.1255 0.915483 13.007 0.704505 12.796C0.493526 12.585 0.375 12.2989 0.375 12.0005C0.375 11.7021 0.493526 11.416 0.704505 11.205C0.915483 10.994 1.20163 10.8755 1.5 10.8755H3.44906C3.66725 9.236 4.35044 7.6933 5.41781 6.42986L3.6675 4.50705C3.56606 4.39809 3.48726 4.27007 3.43566 4.13043C3.38406 3.99078 3.36069 3.84229 3.36691 3.69354C3.37312 3.5448 3.4088 3.39877 3.47187 3.26392C3.53493 3.12907 3.62414 3.00807 3.73431 2.90795C3.84448 2.80782 3.97344 2.73056 4.11369 2.68064C4.25394 2.63072 4.40271 2.60913 4.55136 2.61713C4.70002 2.62513 4.84561 2.66255 4.9797 2.72723C5.11379 2.79191 5.2337 2.88256 5.3325 2.99393L17.8772 16.7921L20.3325 19.4939ZM15.3881 17.4005L6.95062 8.11924C6.04429 9.30494 5.58267 10.771 5.6462 12.2621C5.70974 13.7532 6.29439 15.1747 7.29831 16.279C8.30222 17.3833 9.66176 18.1004 11.14 18.3053C12.6183 18.5103 14.1217 18.1901 15.3881 17.4005Z"/>
</g>
<defs>
<clipPath id="clip0_2077_3077">
<rect width="24" height="24"/>
</clipPath>
</defs>
</svg>

<svg viewBox="0 0 24 24" xmlns="http://www.w3.org/2000/svg" aria-hidden="true" fill="currentColor" height="24px" width="24px"><g clip-path="url(#a)"><path d="M23.625 12a1.125 1.125 0 0 1-1.125 1.126h-1.95a8.6 8.6 0 0 1-.333 1.5 1.125 1.125 0 1 1-2.143-.686 6.38 6.38 0 0 0-7.432-8.17 1.125 1.125 0 1 1-.476-2.199q.35-.077.709-.122V1.5a1.125 1.125 0 1 1 2.25 0V3.45a8.645 8.645 0 0 1 7.427 7.427H22.5A1.125 1.125 0 0 1 23.625 12m-3.293 7.494a1.126 1.126 0 1 1-1.665 1.513l-1.748-1.923a8.6 8.6 0 0 1-3.794 1.467v1.95a1.125 1.125 0 1 1-2.25 0v-1.949a8.645 8.645 0 0 1-7.427-7.426H1.5a1.125 1.125 0 1 1 0-2.25h1.95A8.66 8.66 0 0 1 5.417 6.43l-1.75-1.923a1.125 1.125 0 1 1 1.664-1.513l12.545 13.798zM15.389 17.4 6.951 8.119a6.375 6.375 0 0 0 8.437 9.282"/></g><defs><clipPath id="a"><path d="M0 0h24v24H0z"/></clipPath></defs></svg>
